X:1
T:Title
L:1/8
M:4/4
K:F
V:1 treble nm="Grand Piano"
V:1
 z4 z[Q:1/4=100] BBB | A2 F2 G4 | F4- FCCD | _E2 E2 GFF=E | F4- FBBB | A2 F2 G4 | F4- FCCD | %7
 _E2 E2 GFF=E |[M:5/8] F-F- F3 |[M:3/8] G G2 |[M:4/4] G3 ^F- F G2 A | A4- AA A2 | A3 G- G A2 B | %13
 B4- BB B2 | B3 A- A B2 c | c4- c c2 c | c3 B- B c2 d |[M:5/8] d-d- d3 |[M:3/8] GGG | %19
[M:4/4] G2 G^F A3 G | ^F4- FCCD | _E2 E2 F2 EF | _E2 D2- DGGG | G3 ^F- F A2 G | ^F4- FAAA | %25
 A2 A2 G B2 A |[M:5/8] GAB AG |[M:3/8] G G2 |[M:4/4] G3 ^F- F G2 A | A4- AA A2 | A3 G- G A2 B | %31
 B4- BB B2 | B3 A- A B2 c | c4- c c2 c | c3 B- B c2 d |[M:13/8] d-d- d3 z z z z z z z2 |] %36

